X: 271
T:Spin-N-Glo
C:Frank Ferrel
M:6/8
Z:Alf Warnock - alf0@rogers.com
R:jig
L:1/8
K:G
E|DGB d2B|d3 d2E|DGB dcB|c3 c3 F|
DFA d^cd|d^cd de=f|[1 e2c A2_B|=B3 B2:|[2 eAc BFA|G3 G3||
g|b2g d2g|dAG DGB|dcc c2B|c3 cde|
fgf f2e|ded d2e|=fed cA_B|=B3 Bdg|
bgd Bdg|dBG DGB|dcc c2B|c3 cde|
fgf f2e|ded d2e|fed cAF|G3 G2|]
